X:21
T:Jemmy Lass. JJo.021, The
B:J.Johnson Choice Collection Vol 8 1758
Z:vmp.Simon Wilson 2013 www.village-music-project.org.uk
Z:Dance added by John Chambers 2017
M:C|
L:1/8
%Q:1/2=80
K:A
|: c/d/ |\
edcB (A/B/c) (B/c/d) | (ca)(gf) {f}e2(dc) |\
db2a (ge)(af) | (ec)(BA)B3 :|
|: c |\
(BA)(Bc) (dc)(de) | f/g/a2f{a}g2(fe) |\
(dc)(db) (cB)(ca) | (BA)(BG)A3 :|
%%begintext align
%% Set and hands 3 with the 2d Wo. .|
%% Set and hands 3 with the 2d Man :|
%% Cross over and half figure :||. Right
%% hands and Left :||: Right hands across
%% at Bottom .| Lead thro' the Bottom cast
%% up and foot it :| Left hands across at top :||.
%% Lead thro' the top cast off and foot it :||:
%%endtext
